dist/svgs/team-loudspeaker.svg

<svg xmlns="http://www.w3.org/2000/svg" viewBox="0 0 512 512"><path d="M405 22q23 0 42.5 14.5t34 40.5 22.5 61 8 76-8 76-22.5 61-34 40.5T405 406q-48 0-90-22.5T245 321h-34l66 113q10 14 6 31t-21 26q-14 10-30.5 6T205 476l-92-155H64q-27 0-45.5-30T0 214t18.5-77T64 107h181q28-40 70-62.5T405 22zm0 341q11 0 22.5-11.5T448 320t15-47 6-59-6-59-15-47-20.5-31.5T405 65q-14 0-28.5 19T352 135q24 10 38.5 31t14.5 48-14.5 48-38.5 31q10 32 24.5 51t28.5 19z"/></svg>

<?xml version="1.0" encoding="UTF-8" standalone="no"?><svg   xmlns:svg="http://www.w3.org/2000/svg"   xmlns="http://www.w3.org/2000/svg"   version="1.1"   width="512"   height="512"   viewBox="0 0 512 512">  <path     d="M405 22Q428 22 447.5 36.5T481.5 77T504 138T512 214T504 290T481.5 351T447.5 391.5T405 406Q357 406 315 383.5T245 321H211L277 434Q287 448 283 465T262 491Q248 501 231.5 497T205 476L113 321H64Q37 321 18.5 291T0 214T18.5 137T64 107H149H171H245Q273 67 315 44.5T405 22zM405 363Q416 363 427.5 351.5T448 320T463 273T469 214T463 155T448 108T427.5 76.5T405 65Q391 65 376.5 84T352 135Q376 145 390.5 166T405 214T390.5 262T352 293Q362 325 376.5 344T405 363z"     id="team-loudspeaker" /></svg>
